tools/download-figma-icons/icons/solid/industry.svg

<svg width="25" height="24" viewBox="0 0 25 24" fill="none" xmlns="http://www.w3.org/2000/svg">
<path d="M23.3935 11.7954L23.3941 11.7958C23.4272 11.8188 23.4542 11.8494 23.473 11.8851C23.4917 11.9208 23.5015 11.9605 23.5016 12.0008V23.25C23.5016 23.3163 23.4752 23.3799 23.4283 23.4268C23.3815 23.4737 23.3179 23.5 23.2516 23.5L0.751557 23.5L0.748168 23.5C0.713478 23.5002 0.67911 23.4933 0.647252 23.4795C0.617319 23.4665 0.590228 23.4479 0.567489 23.4246C0.5208 23.3691 0.49679 23.2979 0.500346 23.2254L1.5937 10.25H5.9236L6.25325 14.2461L6.3071 14.8989L6.92257 14.6748L14.916 11.7654C14.9162 11.7654 14.9164 11.7653 14.9166 11.7652C14.954 11.7518 14.994 11.7476 15.0334 11.7528C15.073 11.758 15.1107 11.7726 15.1435 11.7954L15.1441 11.7958C15.1772 11.8188 15.2042 11.8494 15.223 11.8851L15.6658 11.6529L15.223 11.8851C15.2416 11.9207 15.2514 11.9603 15.2516 12.0004C15.2516 12.0006 15.2516 12.0007 15.2516 12.0008L15.2516 13.9275V14.6412L15.9223 14.3974L23.166 11.7654C23.1661 11.7654 23.1663 11.7653 23.1665 11.7652C23.2039 11.7519 23.244 11.7476 23.2834 11.7528C23.323 11.758 23.3607 11.7726 23.3935 11.7954ZM12.8854 16.3661L12.5319 16.7197L12.8854 16.3661C12.651 16.1317 12.3331 16 12.0016 16H9.75156C9.42004 16 9.10209 16.1317 8.86767 16.3661C8.63325 16.6005 8.50156 16.9185 8.50156 17.25C8.50156 17.5815 8.63325 17.8995 8.86767 18.1339C9.10209 18.3683 9.42004 18.5 9.75156 18.5H12.0016C12.3331 18.5 12.651 18.3683 12.8854 18.1339C13.1199 17.8995 13.2516 17.5815 13.2516 17.25C13.2516 16.9185 13.1199 16.6005 12.8854 16.3661ZM5.50316 5.23L5.50328 5.23153L5.71316 7.75H1.78996L1.99983 5.23153L1.99983 5.23153L1.99995 5.23C2.00499 5.16722 2.03354 5.10866 2.07989 5.06602C2.12624 5.02338 2.18697 4.9998 2.24995 5V5H2.25156L5.25156 5.00001L5.25316 5C5.31614 4.9998 5.37688 5.02338 5.42322 5.06602C5.46957 5.10866 5.49812 5.16722 5.50316 5.23ZM12.8854 19.3661L12.5319 19.7197L12.8854 19.3661C12.651 19.1317 12.3331 19 12.0016 19H9.75156C9.42004 19 9.10209 19.1317 8.86767 19.3661C8.63325 19.6005 8.50156 19.9185 8.50156 20.25C8.50156 20.5815 8.63325 20.8995 8.86767 21.1339C9.10209 21.3683 9.42004 21.5 9.75156 21.5H12.0016C12.3331 21.5 12.651 21.3683 12.8854 21.1339C13.1199 20.8995 13.2516 20.5815 13.2516 20.25C13.2516 19.9185 13.1199 19.6005 12.8854 19.3661ZM5.25156 4.5H2.25156H5.25156ZM18.0016 21.5H20.2516C20.5831 21.5 20.901 21.3683 21.1354 21.1339C21.3699 20.8995 21.5016 20.5815 21.5016 20.25C21.5016 19.9185 21.3699 19.6005 21.1354 19.3661C20.901 19.1317 20.5831 19 20.2516 19H18.0016C17.67 19 17.3521 19.1317 17.1177 19.3661C16.8832 19.6005 16.7516 19.9185 16.7516 20.25C16.7516 20.5815 16.8832 20.8995 17.1177 21.1339C17.3521 21.3683 17.67 21.5 18.0016 21.5ZM18.0016 18.5H20.2516C20.5831 18.5 20.901 18.3683 21.1354 18.1339C21.3699 17.8995 21.5016 17.5815 21.5016 17.25C21.5016 16.9185 21.3699 16.6005 21.1354 16.3661C20.901 16.1317 20.5831 16 20.2516 16H18.0016C17.67 16 17.3521 16.1317 17.1177 16.3661C16.8832 16.6005 16.7516 16.9185 16.7516 17.25C16.7516 17.5815 16.8832 17.8995 17.1177 18.1339C17.3521 18.3683 17.67 18.5 18.0016 18.5Z" fill="black" stroke="black"/>
<path d="M2.93402 2.605C2.86772 2.605 2.80413 2.57866 2.75724 2.53178C2.71051 2.48504 2.68419 2.4217 2.68402 2.35563C2.68583 1.86405 2.88191 1.39312 3.22952 1.0455C3.57719 0.697837 4.04821 0.501754 4.53986 0.5H12.0015C12.0678 0.5 12.1314 0.526339 12.1783 0.573224C12.2252 0.620107 12.2515 0.683696 12.2515 0.75C12.2515 0.816304 12.2252 0.879893 12.1783 0.926778C12.1314 0.973661 12.0678 1 12.0015 1H4.53902C4.17965 1 3.835 1.14276 3.58089 1.39687C3.32678 1.65098 3.18402 1.99563 3.18402 2.355C3.18402 2.4213 3.15768 2.48489 3.1108 2.53178C3.06391 2.57866 3.00033 2.605 2.93402 2.605Z" fill="black" stroke="black"/>
<path d="M15.0015 3.25H5.25153C5.18522 3.25 5.12163 3.22366 5.07475 3.17678C5.02786 3.12989 5.00153 3.0663 5.00153 3C5.00153 2.9337 5.02787 2.87011 5.07475 2.82322C5.12163 2.77634 5.18522 2.75 5.25153 2.75H15.0015C15.0678 2.75 15.1314 2.77634 15.1783 2.82322C15.2252 2.87011 15.2515 2.93369 15.2515 3C15.2515 3.06631 15.2252 3.12989 15.1783 3.17678C15.1314 3.22366 15.0678 3.25 15.0015 3.25Z" fill="black" stroke="black"/>
</svg>

<svg width="25" height="24" viewBox="0 0 25 24" fill="none" xmlns="http://www.w3.org/2000/svg"><path d="M23.393 11.795h.001a.251.251 0 0 1 .108.206V23.25a.25.25 0 0 1-.25.25H.748a.25.25 0 0 1-.18-.075.288.288 0 0 1-.068-.2L1.594 10.25h4.33l.33 3.996.053.653.616-.224 7.993-2.91a.25.25 0 0 1 .227.03h.001c.033.024.06.054.079.09l.443-.232-.443.232a.252.252 0 0 1 .029.115v2.641l.67-.244 7.244-2.632a.251.251 0 0 1 .227.03Zm-10.508 4.571-.353.354.353-.354a1.25 1.25 0 0 0-.883-.366h-2.25a1.25 1.25 0 0 0 0 2.5h2.25a1.25 1.25 0 0 0 .883-2.134ZM5.503 5.23v.002l.21 2.518H1.79L2 5.232V5.23A.25.25 0 0 1 2.25 5h3.003a.25.25 0 0 1 .25.23Zm7.382 14.136-.353.354.353-.354a1.25 1.25 0 0 0-.883-.366h-2.25a1.25 1.25 0 0 0 0 2.5h2.25a1.25 1.25 0 0 0 .883-2.134ZM5.252 4.5h-3 3Zm12.75 17h2.25a1.25 1.25 0 0 0 0-2.5h-2.25a1.25 1.25 0 1 0 0 2.5Zm0-3h2.25a1.25 1.25 0 0 0 0-2.5h-2.25a1.25 1.25 0 1 0 0 2.5ZM2.934 2.605a.25.25 0 0 1-.25-.25A1.863 1.863 0 0 1 4.54.5h7.462a.25.25 0 0 1 0 .5H4.538a1.355 1.355 0 0 0-1.355 1.355.25.25 0 0 1-.25.25Zm12.068.645h-9.75a.25.25 0 1 1 0-.5h9.75a.25.25 0 0 1 0 .5Z" fill="currentColor" stroke="currentColor"/></svg>
